X: 144
T: Shak her Weel
T: Longways for as &c.
%R: reel
B: Daniel Wright "Wright's Compleat Collection of Celebrated Country Dances" 1740 p.72
S: http://library.efdss.org/cgi-bin/dancebooks.cgi
Z: 2014 John Chambers <jc:trillian.mit.edu>
N: Repeats modified to match the "Each strain twice" instruction.
M: C|
L: 1/8
K: G
% - - - - - - - - - - - - - - - - - - - - - - - - -
g |\
dG BG ABce | dG BG dG BG |\
dG BG ABce | dB ge d2 G :|
|: e/f/ |\
g/f/e/d/ B/c/d/B/ ABce | g/f/e/d/ B/c/d/B/ g/f/e/d/ B/c/d/B/ |\
cg Bg ABce | dB ge d2 G :|
% - - - - - - - - - - - - - - - - - - - - - - - - -
%%center Each strain twice.
%%begintext align
%% The 1st Cu. clap hands cast of and Jigg it .|
%% then clap hands and cast up and Jigg it, the
%% 1st Cu. Figure on the contrary sides, meet in
%% the Middle, and turn partners quite round :|
%% then sides, and the 1st Cu. slip the 2d Cu.
%% below them, then foot it and cast off :|
%%endtext
% - - - - - - - - - - - - - - - - - - - - - - - - -
%%sep 2 4 300
